X:1
T:Canon In D
T:Canon In D 
%%score ( 1 2 ) 3 ( 4 5 ) 6
L:1/8
Q:1/4=50
M:4/4
K:D
V:1 treble nm="Flauta" snm="Fl."
V:2 treble 
V:3 treble transpose=-9 nm="Saxofón contralto" snm="Sax. Ctrl."
V:4 treble nm="Violín" snm="Vln."
V:5 treble 
V:6 alto nm="Viola" snm="Vla."
V:1
!mf! z8 | z8 | f2 e2 d2 c2 | B2 A2 B2 c2 | d2 c2 B2 A2 | G2 F2 G2 E2 | DFAG FDFE | DB,DA GBAG | %8
 FDEc dfaA | BGAF Dd d>c | d/c/d/D/ C/A/E/F/ D/d/c/B/ c/f/a/b/ | %11
 g/f/e/g/ f/e/d/c/ B/A/G/F/ E/G/F/E/ | D/E/F/G/ A/E/A/G/ F/B/A/G/ A/G/F/E/ | %13
 D/B,/B/c/ d/c/B/A/ G/F/E/B/ A/B/A/G/ | Ff e2 z d f2 | b2 a2 b2 c'2 | d'd c2 z B d2 | d3 d dgea | %18
 a/f/4g/4a/f/4g/4 a/4A/4B/4c/4d/4e/4f/4g/4 f/d/4e/4f/F/4G/4 A/4B/4A/4G/4A/4F/4G/4A/4 | %19
 G/B/4A/4G/F/4E/4 F/4E/4D/4E/4F/4G/4A/4B/4 G/B/4A/4B/c/4d/4 A/4B/4c/4d/4e/4f/4g/4a/4 | %20
 f/d/4e/4f/e/4d/4 e/4c/4d/4e/4f/4e/4d/4c/4 d/B/4c/4d/D/4E/4 F/4G/4F/4E/4F/4d/4c/4d/4 | %21
 B/d/4c/4B/A/4G/4 A/4G/4F/4G/4A/4B/4c/4d/4 B/d/4c/4d/c/4B/4 c/4d/4e/4d/4c/4d/4B/4c/4 | %22
!p! d z c z B z d z | D z D z D z E z | z A z A z F z A | z G z F z G z e | %26
 f/F/G/F/ E/e/f/e/ d/F/D/B/ A/A,/G,/A,/ | B,/B/c/B/ A/A,/G,/A,/ B,/B/A/B/ c/C/B,/C/ | %28
 D/d/e/d/ c/C/D/C/ B,/B/A/B/ c/C/F/E/ | D/d/e/g/ f/F/A/f/ d/g/f/g/ e/A/G/A/ | %30
 F/A/A/A/ A/A/A/A/ F/F/F/F/ F/F/A/A/ | G/G/G/d/ d/d/d/d/ d/d/B/B/ A/A/e/c/ | %32
 A/f/f/f/ e/e/e/e/ d/d/d/d/ a/a/a/a/ | b/b/b/b/ a/a/a/a/ b/b/b/b/ c'/c/c/c/ | %34
!mf! d/D/4E/4F/D/ C/c/4d/4e/c/ B/B,/4C/4D/B,/ C/A/4G/4F/E/ | %35
 D/G/4F/4E/G/ F/D/4E/4F/A/ G/B/4A/4G/F/ E/A/4G/4F/E/ | %36
 F/d/4c/4d/F/ A/A/4B/4c/A/ F/d/4e/4f/d/ f/f/4e/4d/c/ | %37
 B/B/4A/4B/c/ d/f/4e/4d/f/ g/d/4c/4B/B/ A/E/A/A/ | A3 A D3 A | G2 A2 GD D>C | Dd c2 B2 A2 | %41
 D>E F2 B2 E>E | F>f f/g/f/e/ d>d d/e/d/c/ | B2 d2 d/=c/B/c/ A>A | A>a a/b/a/g/ f>f f/g/f/e/ | %45
 d/=c/B/c/ A>A Gd ^c>c | d d2 c2 B2 A- | A G2 F- F>E E2 | F f2 e d d'2 =c' | b2 d'a b2 a2 | %50
 a2 A>G F2 f>e | d3 d d2 c2 | dDCc BB,A,A | GgfF EBEe | fFEe dDCc | BbaA G>e AA | [Ad']8 | z8 |] %58
V:2
 x8 | x8 | x8 | x8 | x8 | x8 | x8 | x8 | x8 | x8 | x8 | x8 | x8 | x8 | x8 | x8 | x8 | x8 | x8 | %19
 x8 | x8 | x8 | x8 | x8 | x8 | x8 | x8 | x8 | x8 | x8 | x8 | x8 | x8 | x8 | x8 | x8 | x8 | x8 | %38
 x8 | x8 | x8 | x8 | x8 | x8 | x8 | x8 | x x2 x2 x2 x- | x x2 x- x>x x2 | x8 | x8 | x8 | x8 | x8 | %53
 x8 | x8 | x8 | x8 | x8 |] %58
V:3
[K:B]!mf! z8 | z8 | z8 | z8 | z8 | z8 | z8 | z8 | d'2 c'2 b2 a2 | g2 f2 g2 a2 | b2 a2 g2 f2 | %11
 e2 d2 e2 c2 | Bdfe dBdc | BGBf egfe | dBca bd'f'f | gefd Bb b>a | %16
 b/a/b/B/ A/f/c/d/ B/b/a/g/ a/d'/f'/g'/ | e'/d'/c'/e'/ d'/c'/b/a/ g/f/e/d/ c/e/d/c/ | %18
 B/c/d/e/ f/c/f/e/ d/g/f/e/ f/e/d/c/ | B/G/g/a/ b/a/g/f/ e/d/c/g/ f/g/f/e/ | dd' c'2 z b d'2 | %21
 g'2 f'2 g'2 a'2 | b'b a2 z g b2 | b3 b be'c'f' | %24
 f'/d'/4e'/4f'/d'/4e'/4 f'/4f/4g/4a/4b/4c'/4d'/4e'/4 d'/b/4c'/4d'/d/4e/4 f/4g/4f/4e/4f/4d/4e/4f/4 | %25
 e/g/4f/4e/d/4c/4 d/4c/4B/4c/4d/4e/4f/4g/4 e/g/4f/4g/a/4b/4 f/4g/4a/4b/4c'/4d'/4e'/4f'/4 | %26
 d'/b/4c'/4d'/c'/4b/4 c'/4a/4b/4c'/4d'/4c'/4b/4a/4 b/g/4a/4b/B/4c/4 d/4e/4d/4c/4d/4b/4a/4b/4 | %27
 g/b/4a/4g/f/4e/4 f/4e/4d/4e/4f/4g/4a/4b/4 g/b/4a/4b/a/4g/4 a/4b/4c'/4b/4a/4b/4g/4a/4 | %28
!p! b z a z g z b z | B z B z B z c z | z f z f z d z f | z e z d z e z c' | %32
 d'/d/e/d/ c/c'/d'/c'/ b/d/B/g/ f/F/E/F/ | G/g/a/g/ f/F/E/F/ G/g/f/g/ a/A/G/A/ | %34
 B/b/c'/b/ a/A/B/A/ G/g/f/g/ a/A/d/c/ | B/b/c'/e'/ d'/d/f/d'/ b/e'/d'/e'/ c'/f/e/f/ | %36
 d/f/f/f/ f/f/f/f/ d/d/d/d/ d/d/f/f/ | e/e/e/b/ b/b/b/b/ b/b/g/g/ f/f/c'/a/ | %38
 f/d'/d'/d'/ c'/c'/c'/c'/ b/b/b/b/ f'/f'/f'/f'/ | %39
 g'/g'/g'/g'/ f'/f'/f'/f'/ g'/g'/g'/g'/ a'/a/a/a/ | %40
!mf! b/B/4c/4d/B/ A/a/4b/4c'/a/ g/G/4A/4B/G/ A/f/4e/4d/c/ | %41
 B/e/4d/4c/e/ d/B/4c/4d/f/ e/g/4f/4e/d/ c/f/4e/4d/c/ | %42
 d/b/4a/4b/d/ f/f/4g/4a/f/ d/b/4c'/4d'/b/ d'/d'/4c'/4b/a/ | %43
 g/g/4f/4g/a/ b/d'/4c'/4b/d'/ e'/b/4a/4g/g/ f/c/f/f/ | f3 f B3 f | e2 f2 eB B>A | Bb a2 g2 f2 | %47
 B>c d2 g2 c>c | d>d' d'/e'/d'/c'/ b>b b/c'/b/a/ | g2 b2 b/=a/g/a/ f>f | %50
 f>f' f'/g'/f'/e'/ d'>d' d'/e'/d'/c'/ | b/=a/g/a/ f>f eb ^a>a | b b2 a2 g2 f- | f e2 d- d>c c2 | %54
 d d'2 c' b b'2 =a' | g'2 b'f' g'2 f'2 | f'8 | z8 |] %58
V:4
 z .d.f.a z .A.c.e | z .B.d.f z .F.A.c | z8 | z8 | f2 e2 d2 c2 | B2 A2 B2 c2 | d2 c2 B2 A2 | %7
 G2 F2 G2 E2 | DFAG FDFE | DB,DA GBAG | FDEc dfaA | BGAF Dd d>c | %12
 d/c/d/D/ C/A/E/F/ D/d/c/B/ c/f/a/b/ | g/f/e/g/ f/e/d/c/ B/A/G/F/ E/G/F/E/ | %14
 D/E/F/G/ A/E/A/G/ F/B/A/G/ A/G/F/E/ | D/B,/B/c/ d/c/B/A/ G/F/E/B/ A/B/A/G/ | Ff e2 z d f2 | %17
 b2 a2 b2 c'2 | d'd c2 z B d2 | d3 d dgea | %20
 a/f/4g/4a/f/4g/4 a/4A/4B/4c/4d/4e/4f/4g/4 f/d/4e/4f/F/4G/4 A/4B/4A/4G/4A/4F/4G/4A/4 | %21
 G/B/4A/4G/F/4E/4 F/4E/4D/4E/4F/4G/4A/4B/4 G/B/4A/4B/c/4d/4 A/4B/4c/4d/4e/4f/4g/4a/4 | %22
 f/d/4e/4f/e/4d/4 e/4c/4d/4e/4f/4e/4d/4c/4 d/B/4c/4d/D/4E/4 F/4G/4F/4E/4F/4d/4c/4d/4 | %23
 B/d/4c/4B/A/4G/4 A/4G/4F/4G/4A/4B/4c/4d/4 B/d/4c/4d/c/4B/4 c/4d/4e/4d/4c/4d/4B/4c/4 | %24
!p! d z c z B z d z | D z D z D z E z | z A z A z F z A | z G z F z G z e | %28
 f/F/G/F/ E/e/f/e/ d/F/D/B/ A/A,/G,/A,/ | B,/B/c/B/ A/A,/G,/A,/ B,/B/A/B/ c/C/B,/C/ | %30
 D/d/e/d/ c/C/D/C/ B,/B/A/B/ c/C/F/E/ | D/d/e/g/ f/F/A/f/ d/g/f/g/ e/A/G/A/ | %32
 F/A/A/A/ A/A/A/A/ F/F/F/F/ F/F/A/A/ | G/G/G/d/ d/d/d/d/ d/d/B/B/ A/A/e/c/ | %34
 A/f/f/f/ e/e/e/e/ d/d/d/d/ a/a/a/a/ | b/b/b/b/ a/a/a/a/ b/b/b/b/ c'/c/c/c/ | %36
!mf! d/D/4E/4F/D/ C/c/4d/4e/c/ B/B,/4C/4D/B,/ C/A/4G/4F/E/ | %37
 D/G/4F/4E/G/ F/D/4E/4F/A/ G/B/4A/4G/F/ E/A/4G/4F/E/ | %38
 F/d/4c/4d/F/ A/A/4B/4c/A/ F/d/4e/4f/d/ f/f/4e/4d/c/ | %39
 B/B/4A/4B/c/ d/f/4e/4d/f/ g/d/4c/4B/B/ A/E/A/A/ | A3 A D3 A | G2 A2 GD D>C | Dd c2 B2 A2 | %43
 D>E F2 B2 E>E | F>f f/g/f/e/ d>d d/e/d/c/ | B2 d2 d/=c/B/c/ A>A | A>a a/b/a/g/ f>f f/g/f/e/ | %47
 d/=c/B/c/ A>A Gd ^c>c | d d2 c2 B2 A- | A G2 F- F>E E2 | F f2 e d d'2 =c' | b2 d'a b2 a2 | %52
 a2 A>G F2 f>e | d3 d d2 c2 | dDCc BB,A,A | GgfF EBEe | f8 | z8 |] %58
V:5
 x8 | x8 | x8 | x8 | x8 | x8 | x8 | x8 | x8 | x8 | x8 | x8 | x8 | x8 | x8 | x8 | x8 | x8 | x8 | %19
 x8 | x8 | x8 | x8 | x8 | x8 | x8 | x8 | x8 | x8 | x8 | x8 | x8 | x8 | x8 | x8 | x8 | x8 | x8 | %38
 x8 | x8 | x8 | x8 | x8 | x8 | x8 | x8 | x8 | x8 | x x2 x2 x2 x- | x x2 x- x>x x2 | x8 | x8 | x8 | %53
 x8 | x8 | x8 | x8 | x8 |] %58
V:6
!fff! D2 A,2 B,2 F,2 | G,2 D,2 G,2 A,2 | D2 A,2 B,2 F,2 | G,2 D,2 G,2 A,2 | D2 A,2 B,2 F,2 | %5
 G,2 D,2 G,2 A,2 | D2 A,2 B,2 F,2 | G,2 D,2 G,2 A,2 | D2 A,2 B,2 F,2 | G,2 D,2 G,2 A,2 | %10
 D2 A,2 B,2 F,2 | G,2 D,2 G,2 A,2 | D2 A,2 B,2 F,2 | G,2 D,2 G,2 A,2 | D2 A,2 B,2 F,2 | %15
 G,2 D,2 G,2 A,2 | D2 A,2 B,2 F,2 | G,2 D,2 G,2 A,2 | D2 A,2 B,2 F,2 | G,2 D,2 G,2 A,2 | %20
 D2 A,2 B,2 F,2 | G,2 D,2 G,2 A,2 | D2 A,2 B,2 F,2 | G,2 D,2 G,2 A,2 | D2 A,2 B,2 F,2 | %25
 G,2 D,2 G,2 A,2 | D2 A,2 B,2 F,2 | G,2 D,2 G,2 A,2 | D2 A,2 B,2 F,2 | G,2 D,2 G,2 A,2 | %30
 D2 A,2 B,2 F,2 | G,2 D,2 G,2 A,2 | D2 A,2 B,2 F,2 | G,2 D,2 G,2 A,2 | D2 A,2 B,2 F,2 | %35
 G,2 D,2 G,2 A,2 | D2 A,2 B,2 F,2 | G,2 D,2 G,2 A,2 | D2 A,2 B,2 F,2 | G,2 D,2 G,2 A,2 | %40
 D2 A,2 B,2 F,2 | G,2 D,2 G,2 A,2 | D2 A,2 B,2 F,2 | G,2 D,2 G,2 A,2 | D2 A,2 B,2 F,2 | %45
 G,2 D,2 G,2 A,2 | D2 A,2 B,2 F,2 | G,2 D,2 G,2 A,2 | D2 A,2 B,2 F,2 | G,2 D,2 G,2 A,2 | %50
 D2 A,2 B,2 F,2 | G,2 D,2 G,2 A,2 | D2 A,2 B,2 F,2 | G,2 D,2 G,2 A,2 | D2 A,2 B,2 F,2 | %55
 G,2 D,2 G,2 A,2 | D,8 | z8 |] %58

